X:1
T:Title
%%score { ( 1 3 ) | ( 2 4 ) }
L:1/8
Q:1/4=100
M:6/8
K:F
V:1 treble nm="Grand Piano"
V:3 treble 
V:2 bass 
V:4 bass 
V:1
 A2 A A2 [EG] | [FA]2 [GB] [Ac]3 | AAA F2 A | [FA]3 [EG]3 | [CFA]2 [CFA] [CFA]2 [CEG] | %5
w: Frank~M.~Davis * * *|||||
 [CFA]2 [CGB] [CAc]3 | [CFA][CFA][CFA] [CF]2 [CFA] | [B,EG]3 [A,F]3 | [DFB]2 [DFB] [DFB]2 [DFB] | %9
w: ||||
 .d3 z3 | [EG]2 [EG] [EG]2 [EG] | [DF]2 [EG] [CFA]3 | [DFB]2 [DFB] [DFB]2 [DFB] | .d3 z3 | %14
w: |||||
 [CAc][CGB][CFA] [CEG]2 [CEA] | [B,EG]3 [A,F]3 |] %16
w: ||
V:2
 [F,CF]2 [F,CF] [F,CF]2 [C,C] | [F,C]2 [F,C] [F,C]3 | [F,CF][F,CF][F,CF] [A,C]2 [F,CF] | %3
 [C,C]3 [C,C]3 | F,2 F, F,2 C, | F,2 F, F,3 | F,F,F, A,2 F, | C,3 F,3 | B,,2 B,, B,,2 B,, | %9
 .B,3 z3 | [C,C]2 [C,C] [C,C]2 [C,C] | [C,C]2 [C,C] F,3 | B,,2 B,, B,,2 B,, | .B,3 z3 | %14
 F,F,F, C,2 C, | C,3 F,3 |] %16
V:3
 x6 | x6 | x6 | x6 | x6 | x6 | x6 | x6 | x6 | F-[Fc][DFB] [CFA]3 | x6 | x6 | x6 | %13
 F-[Fc][DFB] [CFA]3 | x6 | x6 |] %16
V:4
 x6 | x6 | x6 | x6 | x6 | x6 | x6 | x6 | x6 | B,,-[B,,C]B,, F,3 | x6 | x6 | x6 | %13
 B,,-[B,,C]B,, F,3 | x6 | x6 |] %16

